!! Stephen C. Foster, "Massa's in de Cold Ground"
!! from 'Stephen Foster Song Book' Dover Publications (New York) pp. 64-66
!! NOTE:  Leading and trailing bars of rest have been omitted.
**kern
*M4/4
*MM70
*D:
=1
4.a
8b
8a
8f#
8e
8d
=2
2dd
4b
8r
8b
=3
4a
4f#
4.f#
8d
=4
2.e
4r
=5
4.a
8b
8a
8f#
8e
8d
=6
2dd
4b
4r
=7
8b
8a
8f#
8d
4f#
4e
=8
2.d
4r
=9
4.a
8b
8a
8f#
8e
8d
=10
2dd
4b
4r
=11
4.a
8f#
4f#
4d
=12
2.e
4r
=13
4.a
8b
8a
8f#
8e
8d
=14
2dd
4b
4r
=15
8b
8a
8f#
8d
4f#
4e
=16
2.d
4r
!! Chorus:
=17
2dd
4.cc#
8b
=18
2a
4f#
4r
=19
4b
4a
4.f#
8d
=20
2.e
4r
=21
4.a
8b
8a
8f#
8e
8d
=22
2dd
4b
4r
=23
8b
8a
8f#
8d
4f#
4e
=24
2.d
4r
==
*-
